X: 4261
T: Lady Jemima Johnston's    Strathspey
%R: strathspey
B: Niel Gow & Sons "A Fourth Collection of Strathspey Reels, etc." v.4 p.26 #1
Z: 2022 John Chambers <jc:trillian.mit.edu>
M: C
L: 1/8
K: C
% - - - - - - - - - -
% Voice 1 reformatted for _ _-bar lines, for compactness and proofreading.
V: 1 staves=2
F |\
TE>FGF EcGc | TE>GcE FD-DF | TE>FGF EcGE | F<D {G,}G>F ECCF || TE>FGF EcGc |
E<cG>E FD-D>F | TE>FGE FA df | e<cG>B cCC |][| e/f/ | g>ece Tg>age | f>d {f}ed/c/ Bd-de/f/ |
g>ece Tg>age | f>dgG Ac-c e/f/ || g>ece g<c'g>e | fd {f}ed/c/ Bd-d>f | eg GE Fd FD | TB>c~d>f ecc |]
% - - - - - - - - - -
% Voice 2 preserves the staff layout in the book.
V: 2 clef=bass middle=d
z | c2c2 c2c2 | c2c2 g2G2 | c2c2 c2E2 | F2G2 c2c2 || c2c2 c2c2 |
c2c2 g2G2 | c2c2 f2f2 | g2G2 c2c |][| z | c'2c'2 c'2c'2 | b2c'2 g2g2 |
c'2c'2 c'2e2 | f2g2 A2Az || c'2c'2 c'2c'2 | b2c'2 g2G2 | c2^c2 d2B2 | G2B2 c2C |]


